svg/u1f52d.svg

<svg viewBox="0 0 128 128" xmlns="http://www.w3.org/2000/svg">
  <g>
    <g>
      <g>
        <path d="M109.11,39.64c0.16,0.91,1.01,3.52,0.53,4.81l-2.98,7.83c-0.78,2.01,0.42,4.34,2.66,5.21 c2.25,0.87,4.69-0.06,5.47-2.08l3.09-7.87c0.49-1.24,2.48-2.7,3.29-3.33c0.65-0.5,0.5-1.52-0.28-1.8 c-3.02-1.1-6.72-2.6-10.42-3.92C109.74,38.23,108.97,38.86,109.11,39.64z" fill="#616161"/>
        <path d="M114.79,55.41l2.84-7.21c0,0-3.08,2.02-9.1-0.83l-1.86,4.91c-0.78,2.01,0.42,4.34,2.66,5.21 C111.57,58.35,114.02,57.42,114.79,55.41z" fill="#212121"/>
        <path d="M119.09,53.78c0.42-0.42,0.25-1.13-0.31-1.32l-14.41-4.91c-1.47-0.58-2.59-1.77-3.18-3.23 c-1.73-4.23-5.77-6.97-7.33-7.57l-3.49,1.99l-6.61,15.54L86,58.12c1.55,0.6,6.27,1.36,10.23-0.57c1.45-0.71,3.11-0.87,4.62-0.3 l9.9,3.14c0.81,0.26,1.7,0.04,2.3-0.56L119.09,53.78z" fill="#616161"/>
        <path d="M93.97,36.79L32.88,12.1c-0.9,2.33-8.82,21.35-8.98,23.3l61.88,22.64 c2.36,0.91,6.1-3.12,8.36-8.99C96.4,43.19,96.33,37.7,93.97,36.79z" fill="#CFD8DC"/>
        <path d="M27.09,36.58l58.69,21.47c1.17,0.45,2.71-0.36,4.22-1.97l-14.76-6c0,0,5.01-5.48,1.09-12.3 l-8.45,9.4L29.13,31.54C28.88,32.18,28.09,34.1,27.09,36.58z" fill="#BDBDBD"/>
        <g>
          <ellipse cx="14.59" cy="18.44" rx="15.27" ry="6.49" fill="#CFD8DC" transform="matrix(0.3597 -0.9331 0.9331 0.3597 -7.8619 25.4165)"/>
          <path d="M42.82,13.65c-3.2-1.23-8.15,3.87-11.06,11.41c-2.9,7.54-2.66,14.64,0.54,15.88 c3.2,1.23,8.15-3.87,11.06-11.41C46.26,21.99,46.02,14.88,42.82,13.65z" fill="#616161"/>
          <polygon points="42.82,13.65 20.08,4.19 9.1,32.68 32.3,40.93 " fill="#616161"/>
          <ellipse cx="13.79" cy="18.15" rx="12.51" ry="4.75" fill="#212121" transform="matrix(0.3597 -0.9331 0.9331 0.3597 -8.11 24.4886)"/>
          <linearGradient id="SVGID_1_" gradientTransform="matrix(0.9331 0.3597 -0.3597 0.9331 15.856 -20.8864)" gradientUnits="userSpaceOnUse" x1="22.4366" x2="11.9647" y1="40.3014" y2="35.6938">
            <stop offset="0" stop-color="#1565C0"/>
            <stop offset="0.1307" stop-color="#2574C5"/>
            <stop offset="0.7229" stop-color="#69B5D8"/>
            <stop offset="1" stop-color="#84CFE0"/>
          </linearGradient>
          <path d="M12.43,17.63c1.78-4.62,4.91-7.94,8.13-8.39c0.47-0.07-0.24,6.64-2.44,12.01 c-1.9,4.65-5.28,8.1-5.56,7.7C10.73,26.39,10.73,22.04,12.43,17.63z" fill="url(#SVGID_1_)"/>
          <path d="M17.48,30.8l15.92,5.97c2.86,1.07,5.01,1.25,6.53-0.7c1.77-2.27,2.2-3.39,2.78-4.89 c0.9-2.32-1.49-4-2.41-4.36L23.06,19.7c-1.02-0.42-2.19-0.02-2.73,0.94l-3.98,7.03C15.69,28.85,16.22,30.33,17.48,30.8z" fill="#212121"/>
          <path d="M20.08,4.19C16.73,2.9,11.57,8.24,8.53,16.1C5.5,23.97,5.75,31.39,9.1,32.68 c3.34,1.29,8.51-4.04,11.54-11.91C23.67,12.9,23.42,5.48,20.08,4.19z M9.7,28.76c-2.03-0.78-1.84-6.18,0.42-12.05 c2.26-5.87,5.74-10,7.78-9.21s1.84,6.18-0.42,12.05C15.21,25.42,11.73,29.55,9.7,28.76z" fill="#9E9E9E"/>
        </g>
      </g>
      <g>
        <path d="M56.02,55.16c0,3.75,2,6.78,4.46,6.78s4.46-3.04,4.46-6.78c0-2.38-0.81-4.47-2.02-5.68L58,49.53 C56.8,50.74,56.02,52.81,56.02,55.16z" fill="#82AEC0"/>
        <path d="M65.09,59.21c-1.2,0-3.55,2.13-3.55,3.96l0.64,27.81l0.87,4.07l0.24,25.45 c0,1.69,1.39,3.11,1.45,3.17l0.33,0.34l0.35-0.32c0.06-0.06,1.59-1.47,1.59-3.18V94.78l0.97-4.15l0.64-28.35 C68.62,60.47,66.33,59.21,65.09,59.21z" fill="#82AEC0"/>
        <path d="M64.1,54.74c-1.04,0.6-2.01,3.62-1.1,5.21l15.45,25.47l2.79,3.09l12.93,21.92 c0.85,1.47,2.75,2,2.84,2.02l0.46,0.12l0.14-0.45c0.03-0.08,0.64-2.07-0.22-3.55L84.53,86.29l-1.23-4.08L68.68,55.63 C67.78,54.07,65.17,54.12,64.1,54.74z" fill="#82AEC0"/>
        <path d="M65.88,54.74c1.04,0.6,2.01,3.62,1.1,5.21L51.52,85.42l-2.79,3.09L35.8,110.42 c-0.85,1.47-2.75,2-2.84,2.02l-0.46,0.12l-0.14-0.45c-0.03-0.08-0.64-2.07,0.22-3.55l12.86-22.27l1.23-4.08l14.62-26.59 C62.19,54.07,64.8,54.12,65.88,54.74z" fill="#82AEC0"/>
        <path d="M59.59,61.94c0,0,9.79,1.25,11.49,0.61c2.17-0.83,3.87-3.77,3.72-7.09 c-0.15-3.32-3.08-5.98-3.28-5.74c1.91-0.83,3.74-2.48,5.04-7.02c0.51-1.79,0.64-3.38,0.19-4.53c-0.64-1.66-1.95-2.45-3.1-2.09 c-1.17,0.36-1.68,1.98-2.01,3c-0.67,2.07-1.45,4.15-2.74,5.9c-1.29,1.75-4.28,3.6-7.96,3.94L59.59,61.94z" fill="#82AEC0"/>
        <path d="M58.42,61.09l3.25,0.64v6.99l-1.65,2.7c0,0,0.24-3.83,0.02-5.78 C59.69,62.65,58.42,61.09,58.42,61.09z" fill="#2F7889"/>
        <path d="M69.18,70.13c0,0,0.67-2.29,3.36-2.29c2.69,0,4.11,2.29,4.11,2.29l-4.5-8.18 c0,0-1.4,1.35-3.56,1.48l-0.12,5.53L69.18,70.13z" fill="#2F7889"/>
        <ellipse cx="67.87" cy="56.09" rx="5.72" ry="6.27" fill="#B9E4EA"/>
        <ellipse cx="68.32" cy="56.09" rx="2.54" ry="2.79" fill="#2F7889"/>
        <path d="M56.27,47.29l4.68,1.62c0,0,5.66-0.78,7.96-3.94c2.3-3.17,3.13-7.57,3.51-8.08 c0.38-0.51,1.28-1.02,2.04-0.83c0.77,0.19,0.77,0.19,0.77,0.19s-1.53-0.06-1.91,1.53c-0.38,1.6-1.91,6.32-3.83,8.3 c-1.91,1.98-5.11,3.06-6.13,3.57c-1.02,0.51-2.17,4.6-3.64,5.3s-3.51-0.19-3.45-1.79s1.34-3.26,1.34-3.26L56.27,47.29z" fill="#2F7889"/>
      </g>
    </g>
    <line fill="none" stroke="#FFFFFF" stroke-width="3" stroke-linecap="round" stroke-linejoin="round" stroke-miterlimit="10" x1="50.85" x2="68.95" y1="24.33" y2="31.29"/>
  </g>
</svg>

<svg viewBox="0 0 128 128" xmlns="http://www.w3.org/2000/svg">
  <defs>
    <linearGradient id="SVGID_1_" gradientTransform="matrix(0.9331 0.3597 -0.3597 0.9331 0 0)" gradientUnits="userSpaceOnUse" x1="29.718561" x2="19.246661" y1="15.110401" y2="10.502801">
      <stop offset="0" stop-color="#1565C0"/>
      <stop offset="0.1307" stop-color="#2574C5"/>
      <stop offset="0.7229" stop-color="#69B5D8"/>
      <stop offset="1" stop-color="#84CFE0"/>
    </linearGradient>
  </defs>
  <path d="M109.11,39.64 C109.27,40.55 110.12,43.16 109.64,44.45 L106.66,52.28 C105.88,54.29 107.08,56.62 109.32,57.49 C111.57,58.36 114.01,57.43 114.79,55.41 L117.88,47.54 C118.37,46.3 120.36,44.84 121.17,44.21 C121.82,43.71 121.67,42.69 120.89,42.41 C117.87,41.31 114.17,39.81 110.47,38.49 C109.74,38.23 108.97,38.86 109.11,39.64 Z" fill="#616161"/>
  <path d="M114.79,55.41 L117.63,48.2 C117.63,48.2 114.55,50.22 108.53,47.37 L106.67,52.28 C105.89,54.29 107.09,56.62 109.33,57.49 C111.57,58.35 114.02,57.42 114.79,55.41 Z" fill="#212121"/>
  <path d="M119.09,53.78 C119.51,53.36 119.34,52.65 118.78,52.46 L104.37,47.55 C102.9,46.97 101.78,45.78 101.19,44.32 C99.46,40.09 95.42,37.35 93.86,36.75 L90.37,38.74 L83.76,54.28 L86,58.12 C87.55,58.72 92.27,59.48 96.23,57.55 C97.68,56.84 99.34,56.68 100.85,57.25 L110.75,60.39 C111.56,60.65 112.45,60.43 113.05,59.83 L119.09,53.78 Z" fill="#616161"/>
  <path d="M93.97,36.79 L32.88,12.1 C31.98,14.43 24.06,33.45 23.9,35.4 L85.78,58.04 C88.14,58.95 91.88,54.92 94.14,49.05 C96.4,43.19 96.33,37.7 93.97,36.79 Z" fill="#CFD8DC"/>
  <path d="M27.09,36.58 L85.78,58.05 C86.95,58.5 88.49,57.69 90,56.08 L75.24,50.08 C75.24,50.08 80.25,44.6 76.33,37.78 L67.88,47.18 L29.13,31.54 C28.88,32.18 28.09,34.1 27.09,36.58 Z" fill="#BDBDBD"/>
  <path d="M20.085,4.187 C23.43,5.476 23.682,12.901 20.648,20.77 C17.615,28.639 12.444,33.973 9.1,32.684 C5.755,31.395 5.503,23.97 8.537,16.101 C11.57,8.232 16.741,2.898 20.085,4.187 Z" fill="#CFD8DC"/>
  <path d="M42.82,13.65 C39.62,12.42 34.67,17.52 31.76,25.06 C28.86,32.6 29.1,39.7 32.3,40.94 C35.5,42.17 40.45,37.07 43.36,29.53 C46.26,21.99 46.02,14.88 42.82,13.65 Z" fill="#616161"/>
  <path d="M42.82,13.65 L20.08,4.19 L9.1,32.68 L32.3,40.93 Z" fill="#616161"/>
  <path d="M18.286,6.477 C20.734,7.42 20.703,13.411 18.218,19.858 C15.733,26.305 11.734,30.766 9.286,29.823 C6.838,28.879 6.869,22.888 9.354,16.441 C11.839,9.994 15.838,5.533 18.286,6.477 Z" fill="#212121"/>
  <path d="M12.43,17.63 C14.21,13.01 17.34,9.69 20.56,9.24 C21.03,9.17 20.32,15.88 18.12,21.25 C16.22,25.9 12.84,29.35 12.56,28.95 C10.73,26.39 10.73,22.04 12.43,17.63 Z" fill="url(#SVGID_1_)"/>
  <path d="M17.48,30.8 L33.4,36.77 C36.26,37.84 38.41,38.02 39.93,36.07 C41.7,33.8 42.13,32.68 42.71,31.18 C43.61,28.86 41.22,27.18 40.3,26.82 L23.06,19.7 C22.04,19.28 20.87,19.68 20.33,20.64 L16.35,27.67 C15.69,28.85 16.22,30.33 17.48,30.8 Z" fill="#212121"/>
  <path d="M20.08,4.19 C16.73,2.9 11.57,8.24 8.53,16.1 C5.5,23.97 5.75,31.39 9.1,32.68 C12.44,33.97 17.61,28.64 20.64,20.77 C23.67,12.9 23.42,5.48 20.08,4.19 Z M9.7,28.76 C7.67,27.98 7.86,22.58 10.12,16.71 C12.38,10.84 15.86,6.71 17.9,7.5 C19.94,8.29 19.74,13.68 17.48,19.55 C15.21,25.42 11.73,29.55 9.7,28.76 Z" fill="#9E9E9E"/>
  <path d="M56.02,55.16 C56.02,58.91 58.02,61.94 60.48,61.94 C62.94,61.94 64.94,58.9 64.94,55.16 C64.94,52.78 64.13,50.69 62.92,49.48 L58,49.53 C56.8,50.74 56.02,52.81 56.02,55.16 Z" fill="#82AEC0"/>
  <path d="M65.09,59.21 C63.89,59.21 61.54,61.34 61.54,63.17 L62.18,90.98 L63.05,95.05 L63.29,120.5 C63.29,122.19 64.68,123.61 64.74,123.67 L65.07,124.01 L65.42,123.69 C65.48,123.63 67.01,122.22 67.01,120.51 L67.01,94.78 L67.98,90.63 L68.62,62.28 C68.62,60.47 66.33,59.21 65.09,59.21 Z" fill="#82AEC0"/>
  <path d="M64.1,54.74 C63.06,55.34 62.09,58.36 63,59.95 L78.45,85.42 L81.24,88.51 L94.17,110.43 C95.02,111.9 96.92,112.43 97.01,112.45 L97.47,112.57 L97.61,112.12 C97.64,112.04 98.25,110.05 97.39,108.57 L84.53,86.29 L83.3,82.21 L68.68,55.63 C67.78,54.07 65.17,54.12 64.1,54.74 Z" fill="#82AEC0"/>
  <path d="M65.88,54.74 C66.92,55.34 67.89,58.36 66.98,59.95 L51.52,85.42 L48.73,88.51 L35.8,110.42 C34.95,111.89 33.05,112.42 32.96,112.44 L32.5,112.56 L32.36,112.11 C32.33,112.03 31.72,110.04 32.58,108.56 L45.44,86.29 L46.67,82.21 L61.29,55.62 C62.19,54.07 64.8,54.12 65.88,54.74 Z" fill="#82AEC0"/>
  <path d="M59.59,61.94 C59.59,61.94 69.38,63.19 71.08,62.55 C73.25,61.72 74.95,58.78 74.8,55.46 C74.65,52.14 71.72,49.48 71.52,49.72 C73.43,48.89 75.26,47.24 76.56,42.7 C77.07,40.91 77.2,39.32 76.75,38.17 C76.11,36.51 74.8,35.72 73.65,36.08 C72.48,36.44 71.97,38.06 71.64,39.08 C70.97,41.15 70.19,43.23 68.9,44.98 C67.61,46.73 64.62,48.58 60.94,48.92 L59.59,61.94 Z" fill="#82AEC0"/>
  <path d="M58.42,61.09 L61.67,61.73 L61.67,68.72 L60.02,71.42 C60.02,71.42 60.26,67.59 60.04,65.64 C59.69,62.65 58.42,61.09 58.42,61.09 Z" fill="#2F7889"/>
  <path d="M69.18,70.13 C69.18,70.13 69.85,67.84 72.54,67.84 C75.23,67.84 76.65,70.13 76.65,70.13 L72.15,61.95 C72.15,61.95 70.75,63.3 68.59,63.43 L68.47,68.96 L69.18,70.13 Z" fill="#2F7889"/>
  <path d="M73.59,56.09 A5.72 6.27 0 1 1 62.15,56.09 A5.72 6.27 0 1 1 73.59,56.09 Z" fill="#B9E4EA"/>
  <path d="M70.86,56.09 A2.54 2.79 0 1 1 65.78,56.09 A2.54 2.79 0 1 1 70.86,56.09 Z" fill="#2F7889"/>
  <path d="M56.27,47.29 L60.95,48.91 C60.95,48.91 66.61,48.13 68.91,44.97 C71.21,41.8 72.04,37.4 72.42,36.89 C72.8,36.38 73.7,35.87 74.46,36.06 C75.23,36.25 75.23,36.25 75.23,36.25 C75.23,36.25 73.7,36.19 73.32,37.78 C72.94,39.38 71.41,44.1 69.49,46.08 C67.58,48.06 64.38,49.14 63.36,49.65 C62.34,50.16 61.19,54.25 59.72,54.95 C58.25,55.65 56.21,54.76 56.27,53.16 C56.33,51.56 57.61,49.9 57.61,49.9 L56.27,47.29 Z" fill="#2F7889"/>
  <path d="M51.388,22.93 L69.488,29.89 Q70.188,30.159 70.404,30.644 Q70.619,31.128 70.35,31.828 Q69.812,33.228 68.412,32.69 L50.312,25.73 Q48.912,25.192 49.45,23.792 Q49.988,22.392 51.388,22.93 Z" fill="#FFFFFF"/>
</svg>
